X:1
T:Title
%%score { ( 1 3 ) | ( 2 4 ) }
L:1/8
Q:1/4=100
M:4/4
K:C
V:1 treble nm="Grand Piano"
V:3 treble 
V:2 bass 
V:4 bass 
V:1
 [A,F][A,F][A,F][A,F] [A,E]2[K:bass] [A,E]2 | z2 [A,D]4 z2[K:treble] | %2
w: I.~H.~Meredith * * * * *||
 [A,D]2 [A,E][A,F] [A,D]2 [A,E][A,F] | [_B,E]6 z2 | [_B,EG][B,EG][B,EG][B,EG] [B,DF]2 [B,DF]2 | %5
w: |||
 z2 [_B,CE]4[K:treble] z2 | [_B,D]2 [B,E][B,G] [B,D]2 [B,E]G | [A,C-]4 C2 z2 | %8
w: |||
 [A,CF][A,CF][A,CF][A,CF] [A,CE]2 [A,E]2 | [A,CD]2 [A,CD]4 [A,CE][A,CF] | %10
w: ||
 [A,CD]2 [A,CE][A,CF] [A,CD]2 [A,CE][A,CF] | G2- [G,B,FG-]2 [G,CEG]2[K:bass] D,E, | %12
w: ||
 [CFA][CFA][CFA][CFA] [C_EB]2 [CEA]2 | [CEc]2 [G,CG]4 [A,C^F][G,CG] | %14
w: ||
 [A,CA]2 [DFB][DFc] [DFB]2 [FG][Bd] | [EGc]6 z2 | z2 [FA]2 z2 [FA]2 | %17
w: |||
 [CAc][DAd][CFAc][CFA] [_B,CEG]2 [A,CF]2 | z2 [FA]2 z2 [FA]2 | E6 z2 | z2 [G_B]2 z2 [GB]2 | %21
w: ||||
 [DG_Bd][Be][DGBd][DGB] [CEA]2 [_B,CEG]2 | z2 [G_B]2 z2 [GB]2 | A6 z2 | z2 [FA]2 z2 [FA]2 | %25
w: ||||
 [CFAc][Ad][CFAc][CFA] [_B,CEG]2 [A,CF]2 | z2 [FA]2 z2 [GA]2 | [Dd]6 z2 | [Ff]4 [Dd]4 | %29
w: ||||
 [CFAc][AB][CFAc][Ad] [CFAc]2 [CFA]2 | D4 G4 |[M:9/8] F6- F z z |] %32
w: |||
V:2
 [F,,C,]2 [C,,C,]2 [F,,C,]2 [C,,C,]2 | [F,,C,]2 [C,,C,]2 z2 [C,,C,]2 | %2
 [F,,C,]2 [C,,C,]2 [F,,C,]2 [C,,C,]2 | [G,,C,]2 C,,2 G,,2 C,,2 | %4
 [G,,C,]2 [C,,C,]2 [G,,C,]2 [C,,C,]2 | [G,,C,]2 [C,,C,]2 z2 [C,,C,]2 | %6
 [G,,C,]2 [C,,C,]2 [G,,C,]2 z _B, | F,,2 ^F,,2 [G,,E,]2 z2 | [F,,F,]2 [C,,C,]2 [F,,F,]2 [C,,C,]2 | %9
 [F,,F,]2 [C,,C,]2 [F,,F,]2 [C,,C,]2 | [F,,F,]2 [C,,C,]2 [F,,F,]2 [C,,C,]2 | %11
 [E,,E,]2 [D,,D,]2 [C,,C,]2 D,,E,, | [F,,F,][F,,F,][F,,F,][F,,F,] [^F,,^F,]2 [F,,F,]2 | %13
 [G,,G,]2 [E,,E,]2 [E,,E,]2 [_E,,_E,][=E,,=E,] | [F,,F,]2 [D,,D,]2 [G,,G,]2 z [FG] | %15
 [C,C]2 _B,,2 A,,2 G,,2 | [F,,F,]2 [C,,C,]2 [F,,F,]2 [C,,C,]2 | %17
 [F,,F,]2 [C,,C,]2 [F,,F,]2 [C,,C,]2 | [F,,F,]2 [C,,C,]2 [F,,F,]2 [C,,C,]2 | %19
 [G,,G,]2 [C,,C,]2 [G,,G,]2 [C,,C,]2 | [G,,G,]2 [C,,C,]2 [G,,G,]2 [C,,C,]2 | %21
 z [EG] [C,,C,]2 [G,,G,]2 [C,,C,]2 | [G,,G,]2 C,,2 [G,,G,]2 [C,,C,]2 | %23
 [F,,F,]2 [E,,E,]2 [D,,D,]2 [C,,C,]2 | [F,,F,]2 [C,,C,]2 [F,,F,]2 [C,,C,]2 | %25
 z [DF] [C,,C,]2 [F,,F,]2 [C,,C,]2 | [F,,F,]2 [F,,F,]2 [E,,E,]2 [A,,,A,,]2 | %27
 [D,,D,]2 [F,,F,]2 [A,,A,]2 [D,D]2 | [_B,,_B,]2 [_B,,,B,,]2 [=B,,,=B,,]2 [B,,,B,,]2 | %29
 z [CF] z [DF] [C,,C,]2 [C,,C,]2 | [D,,D,]2 [G,,,G,,]2 [C,,C,]2 [C,,C,]2 | %31
[M:9/8] C,2 D,- D, C,2- C, z z |] %32
V:3
 x6[K:bass] x2 | [A,D]2 z2 [F,,C,]2 [A,E][K:treble][A,F] | x8 | z2 C,2 C,2 C,2 | x8 | %5
 [_B,CE]2 z2 [G,,C,]2[K:treble] [B,E][B,G] | x8 | F,2 _E,2 _B,2 z2 | x8 | x8 | x8 | %11
 [G,C]2 z2 z4[K:bass] | x8 | x8 | x8 | z2 _B,2 A,2 G,2 | [Cc]4 [Dd]4 | x8 | [Cc]4 [Dd]4 | %19
 z2 [_B,C]2 [B,D]2 [B,C]2 | [Dd]4 [Ee]4 | x8 | [Dd]4 [Ee]4 | [CF]2 [CF]2 [CF]2 [CF]2 | %24
 [Cc]4 [Dd]4 | x8 | [Cc]4 [^C^c]4 | z2 [FA]2 [FA]2 [FA]2 | z2 [_Bd]2 z2 [F^G]2 | x8 | %30
 [G,B,]2 [G,B,]2 [_B,CE]2 [B,CE]2 |[M:9/8] A,2 _B,- B, A,2- A, z z |] %32
V:4
 x8 | x8 | x8 | x8 | x8 | x8 | z4 z2 [C,,C,]2 | x8 | x8 | x8 | x8 | x8 | x8 | x8 | z4 z2 [G,,G,]2 | %15
 x8 | x8 | x8 | x8 | x8 | x8 | [G,,G,]2 z2 z4 | x8 | x8 | x8 | [F,,F,]2 z2 z4 | x8 | x8 | x8 | %29
 [C,,C,]2 [C,,C,]2 z4 | x8 |[M:9/8] F,,6- F,, z z |] %32

